icons/kubernetes-filled.svg

<svg xmlns="http://www.w3.org/2000/svg" width="256" height="256" fill="none" viewBox="0 0 256 256"><rect width="256" height="256" fill="#326CE5" rx="60"/><path fill="#fff" stroke="#fff" stroke-width=".11" d="M128.073 30C124.796 30.2304 122.313 33.0377 122.484 36.3143V37.9185C122.637 39.736 122.91 41.5364 123.269 43.3198C123.792 46.7349 123.98 50.1928 123.832 53.6446C123.507 54.7794 122.859 55.8034 121.972 56.5884L121.844 58.9947C118.388 59.2848 114.958 59.8138 111.579 60.5818C97.3628 63.7901 84.4184 71.1625 74.4264 81.7859L72.3785 80.3353C71.2522 80.6767 70.0405 80.5487 69.0081 79.994C66.2384 77.9441 63.675 75.6293 61.3541 73.0824C60.1883 71.6894 58.9432 70.3646 57.6252 69.1146L56.3624 68.1078C55.236 67.2033 53.8537 66.6828 52.4117 66.6145C51.5511 66.5689 50.6919 66.7275 49.9045 67.0775C49.117 67.4275 48.4235 67.9589 47.8807 68.6283C45.9523 71.3332 46.5837 75.0791 49.2801 77.0161L50.4576 77.9547C51.9734 78.9632 53.546 79.8834 55.1678 80.7108C58.1884 82.3918 61.0384 84.3629 63.6836 86.6838C64.3602 87.6487 64.7533 88.7837 64.8184 89.9604L66.6786 91.667C56.6354 106.736 52.514 124.988 55.091 142.915L52.7018 143.598C52.0789 144.588 51.2512 145.433 50.2614 146.055C46.928 146.946 43.5158 147.509 40.0731 147.736C38.2461 147.774 36.4227 147.916 34.6121 148.163L33.1018 148.504H32.9311C31.883 148.65 30.8958 149.083 30.0795 149.757C29.2632 150.43 28.6497 151.316 28.3074 152.318C27.9651 153.319 27.9074 154.396 28.1407 155.428C28.374 156.46 28.8892 157.407 29.6289 158.164C30.3755 158.916 31.3168 159.447 32.3475 159.695C33.3781 159.944 34.4577 159.901 35.4654 159.571H35.5763L37.1122 159.401C38.8444 158.889 40.551 158.257 42.2149 157.541C45.4147 156.261 48.734 155.279 52.1301 154.64C53.3076 154.708 54.4339 155.109 55.3896 155.791L57.9495 155.365C63.4958 172.576 75.1517 187.158 90.7157 196.348L89.6746 198.524C90.1525 199.522 90.3317 200.632 90.1866 201.732C88.7787 204.992 87.0551 208.115 85.0413 211.05C83.9366 212.506 82.9167 214.025 81.9865 215.598L81.2612 217.134C80.735 218.047 80.4713 219.088 80.4992 220.141C80.5271 221.194 80.8456 222.219 81.4194 223.103C81.9932 223.987 82.8001 224.695 83.751 225.149C84.7018 225.603 85.7596 225.785 86.8076 225.676C87.858 225.557 88.8551 225.15 89.6881 224.5C90.5211 223.849 91.1574 222.98 91.5263 221.989L92.2345 220.539C92.883 218.832 93.4291 217.091 93.8728 215.334C95.3831 211.605 96.2023 207.603 98.2672 205.128C98.9421 204.494 99.7926 204.078 100.708 203.934L101.988 201.604C118.859 208.089 137.528 208.135 154.431 201.732L155.565 203.908C156.726 204.079 157.767 204.719 158.467 205.657C160.071 208.712 161.368 211.912 162.358 215.214C162.809 216.982 163.362 218.723 164.013 220.428L164.721 221.878C165.094 222.865 165.732 223.73 166.565 224.376C167.398 225.023 168.394 225.426 169.443 225.542C170.491 225.658 171.551 225.481 172.505 225.032C173.46 224.583 174.271 223.878 174.85 222.996C175.423 222.109 175.739 221.081 175.763 220.025C175.787 218.969 175.518 217.927 174.986 217.015L174.244 215.479C173.314 213.911 172.294 212.398 171.189 210.948C169.227 208.115 167.537 205.094 166.069 201.929C165.932 201.35 165.913 200.749 166.013 200.163C166.113 199.577 166.329 199.016 166.65 198.515C166.286 197.771 165.969 197.005 165.702 196.22C181.232 186.962 192.837 172.328 198.324 155.092L200.747 155.518C201.617 154.725 202.761 154.307 203.93 154.341C207.317 154.989 210.636 156.047 213.845 157.242C215.509 158.01 217.215 158.658 218.947 159.205C219.357 159.316 219.954 159.409 220.415 159.52H220.526C221.533 159.846 222.611 159.885 223.639 159.634C224.667 159.383 225.605 158.851 226.349 158.099C227.093 157.346 227.614 156.401 227.853 155.37C228.091 154.339 228.039 153.262 227.702 152.259C227.357 151.257 226.741 150.37 225.921 149.698C225.101 149.026 224.111 148.595 223.06 148.453L221.405 148.061C219.594 147.814 217.771 147.671 215.944 147.634C212.497 147.412 209.084 146.849 205.756 145.953C204.732 145.381 203.878 144.528 203.298 143.496L200.994 142.813C203.451 124.894 199.242 106.697 189.168 91.6755L191.182 89.8154C191.096 88.6464 191.48 87.4859 192.24 86.5899C194.859 84.3373 197.701 82.3491 200.687 80.6511C202.309 79.8233 203.881 78.9031 205.397 77.8949L206.643 76.8881C207.56 76.3188 208.298 75.5014 208.77 74.5305C209.242 73.5596 209.429 72.4749 209.311 71.4019C209.192 70.3289 208.772 69.3114 208.099 68.4672C207.426 67.623 206.528 66.9866 205.508 66.6316C204.49 66.277 203.391 66.2178 202.34 66.4609C201.29 66.704 200.329 67.2394 199.569 68.0054L198.307 69.0122C196.989 70.2625 195.744 71.5873 194.578 72.98C192.325 75.5569 189.833 77.9035 187.128 80.0026C186.037 80.447 184.843 80.577 183.681 80.378L181.522 81.9139C169.064 68.8587 152.28 60.7524 134.293 59.1312C134.293 58.2779 134.182 56.998 134.165 56.5969C133.201 55.9314 132.527 54.916 132.305 53.764C132.186 50.3181 132.404 46.8688 132.953 43.4649C133.32 41.673 133.576 39.8811 133.738 38.0636V36.357C133.909 33.0804 131.434 30.2731 128.149 30.0427L128.073 30ZM120.956 74.0808L119.25 103.886H119.122C119.036 105.729 117.953 107.299 116.289 108.187C114.625 109.074 112.654 108.81 111.169 107.726L86.7223 90.4041C94.5034 82.7615 104.265 77.4447 114.906 75.0535C116.903 74.6269 118.917 74.3026 120.939 74.0808H120.956ZM135.189 74.0808C148.031 75.6764 159.985 81.4446 169.235 90.498L145.019 107.709C143.526 108.903 141.478 109.142 139.745 108.323C138.013 107.504 136.904 105.763 136.878 103.852L135.189 74.0808ZM77.8481 101.616L100.204 121.566V121.694C101.595 122.906 102.201 124.792 101.791 126.592C101.382 128.392 99.9994 129.817 98.2331 130.304V130.389L69.5456 138.64C68.1261 125.716 71.0502 112.686 77.8566 101.608L77.8481 101.616ZM178.135 101.616C184.927 112.666 187.931 125.628 186.685 138.538L157.955 130.261V130.15C156.163 129.664 154.797 128.239 154.396 126.438C153.995 124.638 154.593 122.769 155.984 121.541L178.169 101.685L178.135 101.616ZM123.49 123.119H132.638L138.227 130.218L136.196 139.093L127.979 143.043L119.744 139.093L117.807 130.218L123.49 123.119ZM152.792 147.335C153.176 147.293 153.646 147.293 153.944 147.335L183.528 152.327C179.261 164.614 170.839 175.11 159.849 182.132L148.415 154.452C148.1 153.709 147.969 152.902 148.032 152.098C148.094 151.294 148.349 150.517 148.775 149.832C149.201 149.147 149.785 148.574 150.478 148.162C151.171 147.75 151.953 147.51 152.758 147.463L152.792 147.335ZM103.105 147.463C104.778 147.489 106.322 148.351 107.235 149.75C108.148 151.15 108.293 152.907 107.636 154.443V154.554L96.2706 182.013C85.3912 175.042 77.1313 164.674 72.7369 152.515L102.064 147.54C102.389 147.506 102.721 147.506 103.054 147.54L103.105 147.463ZM127.885 159.409C128.817 159.38 129.739 159.61 130.548 160.074C131.357 160.538 132.022 161.218 132.467 162.037H132.578L147.033 188.122L141.256 189.829C130.624 192.261 119.523 191.689 109.189 188.174L123.695 162.089C124.574 160.553 126.195 159.614 127.962 159.571L127.885 159.409Z"/></svg>

<svg xmlns="http://www.w3.org/2000/svg" width="256" height="256" fill="none"><rect width="256" height="256" fill="#326CE5" rx="60"/><path fill="#fff" stroke="#fff" stroke-width=".11" d="M128.073 30a6.014 6.014 0 0 0-5.589 6.314v1.605c.153 1.817.426 3.617.785 5.4a53 53 0 0 1 .563 10.326 6.23 6.23 0 0 1-1.86 2.943l-.128 2.407c-3.456.29-6.886.819-10.265 1.587a73.1 73.1 0 0 0-37.153 21.204l-2.047-1.45a4.42 4.42 0 0 1-3.37-.342 53 53 0 0 1-7.655-6.912 47 47 0 0 0-3.729-3.967l-1.263-1.007a6.82 6.82 0 0 0-3.95-1.493 5.46 5.46 0 0 0-4.531 2.013 6.02 6.02 0 0 0 1.4 8.388l1.177.939a47 47 0 0 0 4.71 2.756 49 49 0 0 1 8.516 5.973 6.3 6.3 0 0 1 1.134 3.276l1.86 1.707a73.54 73.54 0 0 0-11.587 51.248l-2.39.683a7.8 7.8 0 0 1-2.44 2.457 53 53 0 0 1-10.188 1.681 48 48 0 0 0-5.46.427l-1.511.341h-.17a5.716 5.716 0 0 0-4.791 6.924 5.7 5.7 0 0 0 1.488 2.736 5.72 5.72 0 0 0 5.836 1.407h.111l1.536-.17a46 46 0 0 0 5.103-1.86 53 53 0 0 1 9.915-2.901 6.2 6.2 0 0 1 3.26 1.151l2.56-.426a73.92 73.92 0 0 0 32.766 40.983l-1.041 2.176a5.7 5.7 0 0 1 .512 3.208 55 55 0 0 1-5.146 9.318 48 48 0 0 0-3.054 4.548l-.726 1.536a5.72 5.72 0 0 0 2.49 8.015 5.7 5.7 0 0 0 3.057.527 5.72 5.72 0 0 0 4.719-3.687l.707-1.45a47 47 0 0 0 1.639-5.205c1.51-3.729 2.33-7.731 4.394-10.206a4.6 4.6 0 0 1 2.441-1.194l1.28-2.33a73.55 73.55 0 0 0 52.443.128l1.134 2.176a4.44 4.44 0 0 1 2.902 1.749 54 54 0 0 1 3.891 9.557 48 48 0 0 0 1.655 5.214l.708 1.45a5.72 5.72 0 0 0 7.784 3.154 5.7 5.7 0 0 0 2.345-2.036 5.71 5.71 0 0 0 .136-5.981l-.742-1.536a47 47 0 0 0-3.055-4.531c-1.962-2.833-3.652-5.854-5.12-9.019a4.43 4.43 0 0 1 .581-3.414 20 20 0 0 1-.948-2.295 74.02 74.02 0 0 0 32.622-41.128l2.423.426a4.53 4.53 0 0 1 3.183-1.177c3.387.648 6.706 1.706 9.915 2.901a43 43 0 0 0 5.102 1.963c.41.111 1.007.204 1.468.315h.111a5.71 5.71 0 0 0 5.823-1.421 5.7 5.7 0 0 0 1.504-2.729 5.7 5.7 0 0 0-.151-3.111 5.72 5.72 0 0 0-4.642-3.806l-1.655-.392a48 48 0 0 0-5.461-.427 52 52 0 0 1-10.188-1.681 6.4 6.4 0 0 1-2.458-2.457l-2.304-.683a73.8 73.8 0 0 0-11.826-51.137l2.014-1.86a4.5 4.5 0 0 1 1.058-3.226 53.6 53.6 0 0 1 8.447-5.939 48 48 0 0 0 4.71-2.756l1.246-1.007a5.72 5.72 0 0 0 1.456-8.42 5.716 5.716 0 0 0-8.53-.463l-1.262 1.007a48 48 0 0 0-3.729 3.968 53.3 53.3 0 0 1-7.45 7.023 6.3 6.3 0 0 1-3.447.375l-2.159 1.536a74.55 74.55 0 0 0-47.229-22.783c0-.853-.111-2.133-.128-2.534a4.48 4.48 0 0 1-1.86-2.833 53 53 0 0 1 .648-10.3c.367-1.791.623-3.583.785-5.4v-1.707a6.01 6.01 0 0 0-5.589-6.314zm-7.117 44.08-1.706 29.806h-.128c-.086 1.843-1.169 3.413-2.833 4.301-1.664.887-3.635.623-5.12-.461L86.722 90.404a58.54 58.54 0 0 1 28.184-15.35 60 60 0 0 1 6.033-.973zm14.233 0a59.1 59.1 0 0 1 34.046 16.418l-24.216 17.211a5.02 5.02 0 0 1-5.274.614 5.02 5.02 0 0 1-2.867-4.471zm-57.34 27.536 22.355 19.95v.128a5.02 5.02 0 0 1 1.587 4.898 5.02 5.02 0 0 1-3.558 3.712v.085l-28.687 8.251a58.53 58.53 0 0 1 8.31-37.032zm100.286 0a59.58 59.58 0 0 1 8.55 36.922l-28.73-8.277v-.111a4.96 4.96 0 0 1-3.559-3.712 5.05 5.05 0 0 1 1.588-4.897l22.185-19.856zm-54.645 21.503h9.148l5.589 7.099-2.031 8.875-8.217 3.95-8.235-3.95-1.937-8.875zm29.302 24.216a5.3 5.3 0 0 1 1.152 0l29.584 4.992c-4.267 12.287-12.689 22.783-23.679 29.805l-11.434-27.68a5 5 0 0 1-.383-2.354 5.04 5.04 0 0 1 4.726-4.635zm-49.687.128a5.03 5.03 0 0 1 4.13 2.287 4.99 4.99 0 0 1 .401 4.693v.111l-11.365 27.459a58.7 58.7 0 0 1-23.534-29.498l29.327-4.975q.489-.051.99 0zm24.78 11.946a5.04 5.04 0 0 1 4.582 2.628h.111l14.455 26.085-5.777 1.707a58.83 58.83 0 0 1-32.067-1.655l14.506-26.085c.879-1.536 2.5-2.475 4.267-2.518z"/></svg>
